icons/svg/place_of_worship/sikh3.svg

<?xml version="1.0" encoding="UTF-8" standalone="no"?>
<!-- Created with Inkscape (http://www.inkscape.org/) -->

<svg
   xmlns:dc="http://purl.org/dc/elements/1.1/"
   xmlns:cc="http://creativecommons.org/ns#"
   xmlns:rdf="http://www.w3.org/1999/02/22-rdf-syntax-ns#"
   xmlns:svg="http://www.w3.org/2000/svg"
   xmlns="http://www.w3.org/2000/svg"
   xmlns:sodipodi="http://sodipodi.sourceforge.net/DTD/sodipodi-0.dtd"
   xmlns:inkscape="http://www.inkscape.org/namespaces/inkscape"
   version="1.0"
   width="580"
   height="580"
   id="svg2"
   sodipodi:version="0.32"
   inkscape:version="0.91 r13725"
   sodipodi:docname="sikh3.svg"
   inkscape:output_extension="org.inkscape.output.svg.inkscape">
  <metadata
     id="metadata2975">
    <rdf:RDF>
      <cc:Work
         rdf:about="">
        <dc:format>image/svg+xml</dc:format>
        <dc:type
           rdf:resource="http://purl.org/dc/dcmitype/StillImage" />
        <cc:license
           rdf:resource="http://web.resource.org/cc/PublicDomain" />
        <dc:language>en</dc:language>
      </cc:Work>
    </rdf:RDF>
  </metadata>
  <sodipodi:namedview
     inkscape:window-height="1051"
     inkscape:window-width="1920"
     inkscape:pageshadow="2"
     inkscape:pageopacity="0.0"
     guidetolerance="10.0"
     gridtolerance="10.0"
     objecttolerance="10.0"
     borderopacity="1.0"
     bordercolor="#666666"
     pagecolor="#ffffff"
     id="base"
     inkscape:zoom="0.65172414"
     inkscape:cx="322.57458"
     inkscape:cy="258.03005"
     inkscape:window-x="0"
     inkscape:window-y="0"
     inkscape:current-layer="svg2"
     showgrid="false"
     inkscape:window-maximized="1" />
  <defs
     id="defs4">
    <inkscape:perspective
       sodipodi:type="inkscape:persp3d"
       inkscape:vp_x="0 : 290 : 1"
       inkscape:vp_y="0 : 1000 : 0"
       inkscape:vp_z="580 : 290 : 1"
       inkscape:persp3d-origin="290 : 193.33333 : 1"
       id="perspective2441" />
    <inkscape:perspective
       id="perspective2466"
       inkscape:persp3d-origin="372.04724 : 350.78739 : 1"
       inkscape:vp_z="744.09448 : 526.18109 : 1"
       inkscape:vp_y="0 : 1000 : 0"
       inkscape:vp_x="0 : 526.18109 : 1"
       sodipodi:type="inkscape:persp3d" />
    <inkscape:perspective
       id="perspective3333"
       inkscape:persp3d-origin="372.04724 : 350.78739 : 1"
       inkscape:vp_z="744.09448 : 526.18109 : 1"
       inkscape:vp_y="0 : 1000 : 0"
       inkscape:vp_x="0 : 526.18109 : 1"
       sodipodi:type="inkscape:persp3d" />
    <inkscape:perspective
       id="perspective3401"
       inkscape:persp3d-origin="372.04724 : 350.78739 : 1"
       inkscape:vp_z="744.09448 : 526.18109 : 1"
       inkscape:vp_y="0 : 1000 : 0"
       inkscape:vp_x="0 : 526.18109 : 1"
       sodipodi:type="inkscape:persp3d" />
    <inkscape:perspective
       id="perspective3464"
       inkscape:persp3d-origin="372.04724 : 350.78739 : 1"
       inkscape:vp_z="744.09448 : 526.18109 : 1"
       inkscape:vp_y="0 : 1000 : 0"
       inkscape:vp_x="0 : 526.18109 : 1"
       sodipodi:type="inkscape:persp3d" />
    <inkscape:perspective
       id="perspective3581"
       inkscape:persp3d-origin="225 : 150 : 1"
       inkscape:vp_z="450 : 225 : 1"
       inkscape:vp_y="0 : 1000 : 0"
       inkscape:vp_x="0 : 225 : 1"
       sodipodi:type="inkscape:persp3d" />
    <inkscape:perspective
       id="perspective4312"
       inkscape:persp3d-origin="225 : 150 : 1"
       inkscape:vp_z="450 : 225 : 1"
       inkscape:vp_y="0 : 1000 : 0"
       inkscape:vp_x="0 : 225 : 1"
       sodipodi:type="inkscape:persp3d" />
  </defs>
  <g
     id="g1327">
    <path
       d="M 66.275,1.768 C 24.94,1.768 1.704,23.139 1.704,66.804 L 1.704,516.927 C 1.704,557.771 22.599,579.156 63.896,579.156 L 515.92,579.156 C 557.227,579.156 578.149,558.841 578.149,516.927 L 578.149,66.804 C 578.149,24.203 557.227,1.768 514.628,1.768 C 514.624,1.768 66.133,1.625 66.275,1.768 z "
       style="fill:#111;stroke:#eee;stroke-width:3.40799999"
       id="path1329" />
  </g>
  <path
     style="fill:#ffffff"
     d="m 287.38644,43.611218 c -11.44561,17.84306 -31.64569,28.293713 -42.75,46.46875 0.0657,9.839231 -0.0132,20.753562 -5.34375,29.187502 -10.11236,7.1468 -21.69255,12.80504 -29.74418,22.48249 -18.28813,17.17042 -34.61965,38.89739 -36.31832,64.73626 -2.86713,23.47734 -0.52472,48.24247 12.02609,68.65023 12.84377,20.73529 28.74931,40.78423 51.00516,51.84977 8.38341,6.14114 10.77327,17.6775 7.53125,27.34375 -1.37413,4.68585 0.67875,9.96017 6.16138,10.38766 12.21997,5.08654 23.21084,14.00845 30.18237,25.42484 3.7836,6.92515 6.07132,17.44788 -0.375,23.46875 -5.6519,4.11002 -11.62908,-2.50063 -16.73801,-4.41143 -15.80544,-10.26254 -30.20266,-22.26741 -44.93075,-33.98555 -30.28349,-25.03893 -64.03949,-58.08537 -75.73749,-96.44677 -11.75204,-33.38216 -15.04181,-76.40293 1.6875,-109.125 7.54632,-15.72932 20.20223,-27.74026 31.875,-40.46875 2.08972,-3.09975 -2.0885,-5.27342 -4.65625,-3.5 -14.4331,4.3717 -26.13071,14.65225 -36.98836,24.64461 -26.79199,26.66747 -41.645239,69.51353 -39.19914,107.13664 1.308203,52.81572 30.39846,104.57738 62.08354,145.8815 12.40755,17.51187 26.07831,35.31539 31.54146,56.306 -1.2032,4.01646 3.40189,5.74358 5.875,2.75 17.50292,-9.0609 28.32738,-27.45071 46.25,-35.6875 7.90201,-2.20695 14.86551,2.72859 21.21875,6.53125 3.07643,1.19949 10.64963,4.05205 6.6875,8.3125 -7.89299,4.86863 -17.21563,7.26041 -24.64209,13.02713 -14.11707,9.40088 -27.00465,24.41235 -27.01416,42.16037 0.71348,9.39453 11.27457,16.83478 20.125,12.46875 10.38047,-3.68054 16.01902,-16.28436 12.1875,-26.53125 0.24813,-10.45078 11.40075,-15.40444 19.625,-19.125 4.17608,-2.85816 12.38811,-4.39048 13.8125,2.21875 3.09486,10.60326 -0.2955,21.74244 -1.34375,32.28125 -1.50657,7.70956 -6.63723,14.05206 -9.28125,21.0625 -0.0681,9.10873 7.54503,16.10119 14.21875,21.15625 6.69509,5.41599 4.26404,-3.58564 4.625,-7.96875 0,-164.75 0,-329.5 0,-494.250002 -1.21875,1.854167 -2.4375,3.708333 -3.65625,5.5625 z M 250.41769,147.86122 c 8.74918,0.71012 10.94204,11.42464 12.42735,18.43956 8.28382,32.30619 17.08078,61.97718 9.34838,95.29163 -3.34715,12.63122 -5.71857,21.68673 -11.21323,33.55006 -1.85144,4.89002 -6.73063,8.13627 -11.9375,6.09375 -12.52566,-5.35149 -18.10715,-13.75349 -27.23569,-23.51676 -18.12148,-20.12846 -27.68184,-47.19799 -20.17388,-73.95234 4.93644,-22.55993 17.17871,-36.4801 36.02175,-48.70195 4.26308,-2.15106 7.85785,-6.78456 12.76282,-7.20395 z"
     id="path7034"
     sodipodi:nodetypes="cccccccccccccccccccccccccccccccccccccccccccccc"
     inkscape:connector-curvature="0" />
  <path
     sodipodi:nodetypes="cccccccccccccccccccccccccccccccccccccccccccccc"
     id="path3778"
     d="m 292.61356,43.611218 c 11.44561,17.84306 31.64569,28.293713 42.75,46.46875 -0.0657,9.839231 0.0132,20.753562 5.34375,29.187502 10.11236,7.1468 21.69255,12.80504 29.74418,22.48249 18.28813,17.17042 34.61965,38.89739 36.31832,64.73626 2.86713,23.47734 0.52472,48.24247 -12.02609,68.65023 -12.84377,20.73529 -28.74931,40.78423 -51.00516,51.84977 -8.38341,6.14114 -10.77327,17.6775 -7.53125,27.34375 1.37413,4.68585 -0.67875,9.96017 -6.16138,10.38766 -12.21997,5.08654 -23.21084,14.00845 -30.18237,25.42484 -3.7836,6.92515 -6.07132,17.44788 0.375,23.46875 5.6519,4.11002 11.62908,-2.50063 16.73801,-4.41143 15.80544,-10.26254 30.20266,-22.26741 44.93075,-33.98555 30.28349,-25.03893 64.03949,-58.08537 75.73749,-96.44677 11.75204,-33.38216 15.04181,-76.40293 -1.6875,-109.125 -7.54632,-15.72932 -20.20223,-27.74026 -31.875,-40.46875 -2.08972,-3.09975 2.0885,-5.27342 4.65625,-3.5 14.4331,4.3717 26.13071,14.65225 36.98836,24.64461 26.792,26.66747 41.64524,69.51353 39.19914,107.13664 -1.3082,52.81572 -30.39846,104.57738 -62.08354,145.8815 -12.40755,17.51187 -26.07831,35.31539 -31.54146,56.306 1.2032,4.01646 -3.40189,5.74358 -5.875,2.75 -17.50292,-9.0609 -28.32738,-27.45071 -46.25,-35.6875 -7.90201,-2.20695 -14.86551,2.72859 -21.21875,6.53125 -3.07643,1.19949 -10.64963,4.05205 -6.6875,8.3125 7.89299,4.86863 17.21563,7.26041 24.64209,13.02713 14.11707,9.40088 27.00465,24.41235 27.01416,42.16037 -0.71348,9.39453 -11.27457,16.83478 -20.125,12.46875 -10.38047,-3.68054 -16.01902,-16.28436 -12.1875,-26.53125 -0.24813,-10.45078 -11.40075,-15.40444 -19.625,-19.125 -4.17608,-2.85816 -12.38811,-4.39048 -13.8125,2.21875 -3.09486,10.60326 0.2955,21.74244 1.34375,32.28125 1.50657,7.70956 6.63723,14.05206 9.28125,21.0625 0.0681,9.10873 -7.54503,16.10119 -14.21875,21.15625 -6.69509,5.41599 -4.26404,-3.58564 -4.625,-7.96875 0,-164.75 0,-329.5 0,-494.250002 1.21875,1.854167 2.4375,3.708333 3.65625,5.5625 z m 36.96875,104.250002 c -8.74918,0.71012 -10.94204,11.42464 -12.42735,18.43956 -8.28382,32.30619 -17.08078,61.97718 -9.34838,95.29163 3.34715,12.63122 5.71857,21.68673 11.21323,33.55006 1.85144,4.89002 6.73063,8.13627 11.9375,6.09375 12.52566,-5.35149 18.10715,-13.75349 27.23569,-23.51676 18.12148,-20.12846 27.68184,-47.19799 20.17388,-73.95234 -4.93644,-22.55993 -17.17871,-36.4801 -36.02175,-48.70195 -4.26308,-2.15106 -7.85785,-6.78456 -12.76282,-7.20395 z"
     style="fill:#ffffff"
     inkscape:connector-curvature="0" />
</svg>

<svg width="580" height="580" viewBox="0 0 580 580" fill="none" xmlns="http://www.w3.org/2000/svg">
<g clip-path="url(#clip0)">
<path d="M66.2751 1.76802C24.9401 1.76802 1.7041 23.139 1.7041 66.804V516.927C1.7041 557.771 22.5991 579.156 63.8961 579.156H515.92C557.227 579.156 578.149 558.841 578.149 516.927V66.804C578.149 24.203 557.227 1.76802 514.628 1.76802C514.624 1.76802 66.1331 1.62502 66.2751 1.76802Z" fill="#111111" stroke="#EEEEEE" stroke-width="3.408"/>
<path d="M287.386 43.6112C275.941 61.4543 255.741 71.9049 244.636 90.08C244.702 99.9192 244.623 110.834 239.293 119.267C229.18 126.414 217.6 132.072 209.548 141.75C191.26 158.92 174.929 180.647 173.23 206.486C170.363 229.964 172.705 254.729 185.256 275.136C198.1 295.872 214.005 315.921 236.261 326.986C244.645 333.127 247.035 344.664 243.793 354.33C242.418 359.016 244.471 364.29 249.954 364.718C262.174 369.804 273.165 378.726 280.136 390.142C283.92 397.068 286.208 407.59 279.761 413.611C274.109 417.721 268.132 411.111 263.023 409.2C247.218 398.937 232.821 386.932 218.093 375.214C187.809 350.175 154.053 317.129 142.355 278.767C130.603 245.385 127.313 202.365 144.043 169.642C151.589 153.913 164.245 141.902 175.918 129.174C178.007 126.074 173.829 123.9 171.261 125.674C156.828 130.045 145.131 140.326 134.273 150.318C107.481 176.986 92.6277 219.832 95.0738 257.455C96.382 310.271 125.472 362.032 157.157 403.336C169.565 420.848 183.236 438.652 188.699 459.642C187.496 463.659 192.101 465.386 194.574 462.392C212.077 453.332 222.901 434.942 240.824 426.705C248.726 424.498 255.689 429.434 262.043 433.236C265.119 434.436 272.692 437.288 268.73 441.549C260.837 446.417 251.514 448.809 244.088 454.576C229.971 463.977 217.083 478.988 217.074 496.736C217.787 506.131 228.348 513.571 237.199 509.205C247.579 505.524 253.218 492.921 249.386 482.674C249.634 472.223 260.787 467.269 269.011 463.549C273.187 460.691 281.399 459.158 282.824 465.767C285.919 476.371 282.528 487.51 281.48 498.049C279.974 505.758 274.843 512.101 272.199 519.111C272.131 528.22 279.744 535.212 286.418 540.267C293.113 545.683 290.682 536.682 291.043 532.299C291.043 367.549 291.043 202.799 291.043 38.0487C289.824 39.9029 288.605 41.757 287.386 43.6112V43.6112ZM250.418 147.861C259.167 148.571 261.36 159.286 262.845 166.301C271.129 198.607 279.926 228.278 272.193 261.592C268.846 274.224 266.475 283.279 260.98 295.142C259.129 300.032 254.249 303.279 249.043 301.236C236.517 295.885 230.935 287.483 221.807 277.719C203.685 257.591 194.125 230.521 201.633 203.767C206.569 181.207 218.812 167.287 237.655 155.065C241.918 152.914 245.513 148.281 250.418 147.861V147.861Z" fill="white"/>
<path d="M292.613 43.6112C304.059 61.4543 324.259 71.9049 335.363 90.08C335.298 99.9192 335.377 110.834 340.707 119.267C350.82 126.414 362.4 132.072 370.451 141.75C388.74 158.92 405.071 180.647 406.77 206.486C409.637 229.964 407.294 254.729 394.744 275.136C381.9 295.872 365.994 315.921 343.738 326.986C335.355 333.127 332.965 344.664 336.207 354.33C337.581 359.016 335.528 364.29 330.046 364.718C317.826 369.804 306.835 378.726 299.863 390.142C296.08 397.068 293.792 407.59 300.238 413.611C305.89 417.721 311.868 411.111 316.976 409.2C332.782 398.937 347.179 386.932 361.907 375.214C392.191 350.175 425.947 317.129 437.645 278.767C449.397 245.385 452.687 202.365 435.957 169.642C428.411 153.913 415.755 141.902 404.082 129.174C401.992 126.074 406.171 123.9 408.738 125.674C423.172 130.045 434.869 140.326 445.727 150.318C472.519 176.986 487.372 219.832 484.926 257.455C483.618 310.271 454.528 362.032 422.842 403.336C410.435 420.848 396.764 438.652 391.301 459.642C392.504 463.659 387.899 465.386 385.426 462.392C367.923 453.332 357.099 434.942 339.176 426.705C331.274 424.498 324.31 429.434 317.957 433.236C314.881 434.436 307.308 437.288 311.27 441.549C319.163 446.417 328.485 448.809 335.912 454.576C350.029 463.977 362.916 478.988 362.926 496.736C362.212 506.131 351.651 513.571 342.801 509.205C332.42 505.524 326.782 492.921 330.613 482.674C330.365 472.223 319.213 467.269 310.988 463.549C306.812 460.691 298.6 459.158 297.176 465.767C294.081 476.371 297.471 487.51 298.52 498.049C300.026 505.758 305.157 512.101 307.801 519.111C307.869 528.22 300.256 535.212 293.582 540.267C286.887 545.683 289.318 536.682 288.957 532.299C288.957 367.549 288.957 202.799 288.957 38.0487C290.176 39.9029 291.395 41.757 292.613 43.6112V43.6112ZM329.582 147.861C320.833 148.571 318.64 159.286 317.155 166.301C308.871 198.607 300.074 228.278 307.806 261.592C311.154 274.224 313.525 283.279 319.02 295.142C320.871 300.032 325.75 303.279 330.957 301.236C343.483 295.885 349.064 287.483 358.193 277.719C376.314 257.591 385.875 230.521 378.367 203.767C373.43 181.207 361.188 167.287 342.345 155.065C338.082 152.914 334.487 148.281 329.582 147.861V147.861Z" fill="white"/>
</g>
<defs>
<clipPath id="clip0">
<path d="M0 0H580V580H0V0Z" fill="white"/>
</clipPath>
</defs>
</svg>
